public/Feed.svg

<svg width="50" height="50" viewBox="0 0 50 50" fill="none" xmlns="http://www.w3.org/2000/svg">
<path d="M24.9996 50C31.678 50 37.9558 47.4 42.6782 42.6777C47.3996 37.956 50 31.678 50 25.0004C50 18.3228 47.3995 12.0442 42.6777 7.3218C37.9563 2.60005 31.6784 0 25.0004 0C18.3223 0 12.0442 2.60005 7.3218 7.32228C2.60042 12.044 0 18.322 0 24.9996C0 31.6772 2.60054 37.9558 7.32229 42.6782C12.0437 47.3999 18.3216 50 24.9996 50ZM39.0444 10.9552C38.7768 10.6877 38.7768 10.2543 39.0444 9.98679C39.3119 9.71924 39.7453 9.71924 40.0128 9.98679C48.2917 18.2657 48.2917 31.7358 40.0128 40.0149C39.8791 40.1487 39.7037 40.2156 39.5284 40.2156C39.353 40.2156 39.1777 40.1487 39.0439 40.0149C38.7764 39.7474 38.7764 39.314 39.0439 39.0465C46.7886 31.3019 46.7885 18.6999 39.0444 10.9552ZM13.6175 13.6193C19.8931 7.34332 30.1048 7.34332 36.3805 13.6193C36.6481 13.8868 36.6481 14.3201 36.3805 14.5877C36.2467 14.7215 36.0714 14.7884 35.896 14.7884C35.7207 14.7884 35.5454 14.7215 35.4116 14.5877C29.6698 8.84589 20.3272 8.84589 14.586 14.5877C14.3185 14.8552 13.8851 14.8552 13.6176 14.5877C13.35 14.3206 13.35 13.8868 13.6175 13.6193ZM31.7792 18.2202C31.5117 17.9526 31.5117 17.5193 31.7792 17.2517C32.0468 16.9842 32.4801 16.9842 32.7477 17.2517C34.8179 19.3214 35.9578 22.0739 35.9578 25.0006C35.9578 27.9273 34.8178 30.6799 32.7477 32.7495C32.6139 32.8833 32.4386 32.9502 32.2632 32.9502C32.0879 32.9502 31.9125 32.8833 31.7788 32.7495C31.5112 32.482 31.5112 32.0486 31.7788 31.7811C33.5904 29.9698 34.5876 27.5619 34.5876 25.0005C34.5876 22.4391 33.5905 20.0314 31.7792 18.2202ZM29.1085 25.0007C29.1085 26.0982 28.6809 27.1306 27.9045 27.9066C27.1286 28.6829 26.0962 29.1105 24.9987 29.1105C23.9012 29.1105 22.8688 28.6829 22.0929 27.907C21.3165 27.1307 20.8889 26.0982 20.8889 25.0007C20.8889 23.9033 21.3165 22.8708 22.0929 22.0949C22.8688 21.3185 23.9012 20.8909 24.9987 20.8909C26.0962 20.8909 27.1286 21.3185 27.9045 22.0944C28.6809 22.8708 29.1085 23.9033 29.1085 25.0007ZM18.2182 31.7813C18.4858 32.0489 18.4858 32.4822 18.2182 32.7498C18.0844 32.8835 17.9091 32.9504 17.7337 32.9504C17.5584 32.9504 17.3831 32.8835 17.2493 32.7498C15.1796 30.68 14.0397 27.9276 14.0397 25.0009C14.0397 22.0741 15.1796 19.3216 17.2498 17.252C17.5173 16.9844 17.9507 16.9844 18.2182 17.252C18.4858 17.5195 18.4858 17.9529 18.2182 18.2204C16.4069 20.0317 15.4099 22.4396 15.4099 25.001C15.4099 27.5624 16.407 29.97 18.2182 31.7813ZM13.6173 35.4133C13.8848 35.1457 14.3182 35.1457 14.5857 35.4133C20.3275 41.1551 29.6701 41.1551 35.4113 35.4133C35.6789 35.1457 36.1122 35.1457 36.3798 35.4133C36.6473 35.6808 36.6473 36.1142 36.3798 36.3817C33.2423 39.5202 29.1201 41.0887 24.9983 41.0887C20.8765 41.0887 16.7544 39.5197 13.6168 36.3817C13.3493 36.1147 13.3497 35.6808 13.6173 35.4133ZM9.98532 9.98642C10.2529 9.71887 10.6862 9.71887 10.9538 9.98642C11.2213 10.254 11.2213 10.6873 10.9538 10.9549C3.20964 18.6995 3.20964 31.301 10.9538 39.0456C11.2213 39.3132 11.2213 39.7465 10.9538 40.0141C10.82 40.1478 10.6447 40.2147 10.4693 40.2147C10.294 40.2147 10.1186 40.1478 9.98486 40.0141C1.70648 31.7352 1.70647 18.2655 9.98532 9.98642Z" fill="#DEAD2A" fill-opacity="0.5"/>
<path d="M23.0622 23.0627C22.5443 23.5806 22.2595 24.2681 22.2595 25.0001C22.2595 25.732 22.5443 26.4194 23.0622 26.9374C24.0975 27.9723 25.9011 27.9723 26.9364 26.9374C27.4539 26.4195 27.7386 25.732 27.7386 25.0001C27.7386 24.2681 27.4539 23.5807 26.936 23.0627C26.4185 22.5452 25.731 22.2605 24.9991 22.2605C24.2671 22.2605 23.5797 22.5452 23.0622 23.0627H23.0622Z" fill="#DEAD2A" fill-opacity="0.5"/>
</svg>

<svg width="50" height="50" fill="none" xmlns="http://www.w3.org/2000/svg"><path d="M25 50c6.678 0 12.956-2.6 17.678-7.322A24.837 24.837 0 0050 25c0-6.677-2.6-12.956-7.322-17.678C37.956 2.6 31.678 0 25 0 18.322 0 12.044 2.6 7.322 7.322A24.837 24.837 0 000 25c0 6.677 2.6 12.956 7.322 17.678C12.044 47.4 18.322 50 25 50zm14.044-39.045a.684.684 0 11.969-.968c8.279 8.279 8.279 21.749 0 30.028a.683.683 0 01-.97 0 .685.685 0 010-.968c7.746-7.745 7.745-20.347.001-28.092zM13.618 13.62c6.275-6.276 16.487-6.276 22.762 0a.684.684 0 11-.968.969c-5.742-5.742-15.085-5.742-20.826 0a.685.685 0 11-.969-.969zm18.161 4.601a.685.685 0 11.969-.968A10.886 10.886 0 0135.958 25c0 2.926-1.14 5.679-3.21 7.748a.683.683 0 01-.97 0 .684.684 0 010-.968 9.525 9.525 0 002.81-6.78c0-2.562-.998-4.97-2.809-6.78zM29.11 25c0 1.098-.428 2.13-1.205 2.907A4.082 4.082 0 0125 29.11a4.083 4.083 0 01-2.906-1.203 4.084 4.084 0 01-1.204-2.906c0-1.098.428-2.13 1.204-2.906a4.082 4.082 0 012.906-1.204c1.097 0 2.13.428 2.905 1.203a4.084 4.084 0 011.204 2.907zm-10.89 6.781a.685.685 0 11-.97.969A10.888 10.888 0 0114.04 25c0-2.926 1.14-5.678 3.21-7.748a.684.684 0 11.97.968 9.526 9.526 0 00-2.81 6.781c0 2.561.998 4.969 2.81 6.78zm-4.602 3.632a.684.684 0 01.969 0c5.742 5.742 15.084 5.742 20.825 0a.685.685 0 11.969.969 16.043 16.043 0 01-11.382 4.707 16.045 16.045 0 01-11.381-4.707.685.685 0 010-.969zM9.985 9.986a.685.685 0 11.969.969c-7.744 7.745-7.744 20.346 0 28.09a.685.685 0 11-.97.97c-8.278-8.28-8.278-21.75.001-30.029z" fill="#DEAD2A" fill-opacity=".5"/><path d="M23.062 23.063A2.72 2.72 0 0022.26 25c0 .732.285 1.42.803 1.937 1.035 1.035 2.84 1.035 3.874 0A2.722 2.722 0 0027.74 25c0-.732-.285-1.42-.803-1.937a2.72 2.72 0 00-1.937-.802 2.72 2.72 0 00-1.937.802z" fill="#DEAD2A" fill-opacity=".5"/></svg>
